X:2401
T:Ushag veg ruy 
C:Mr H Bridson, Cronkbourne
C:Traditional
O:Isle of Man
N:See also KV409
Z:Clague Collection
B:Kiaull Vannin #401
M:6/8 
L:1/8
Q:100 
K:G
GGG G2 B|d2 d d2 d|c2 c c2 c|B2 G D3|GGG G2 B|d2 d d2 d|ccA d2 F|G3-G3||

